X:1
T:Graeme of Old Birkwood
C:Ryan Canning
L:1/8
R:Jig
M:6/8
K:D
[|: e | {gAGAG}A2 {d}A {g}A{d}Bd | {g}de{A}e {gef}e2 d | {gef}edB {gf}g2 a | e{g}e{A}e [2 "2 of 2nd part" {g}deg |
{AGAG}A2 {d}A {g}A{d}Bd | {g}de{A}e {gef}e2 d | {gef}edB {gf}g2 G | {g}B{d}A{e}A {gAGAG}A2 :|]
[|: f | {a}ge{A}e {g}efg | age {geA}e2 f | {g}d{e}d{A}d {g}Bdg | {a}edB [1 {gBeBG}B2 f |
{a}ge{A}e {g}efg} | age {g}efg |{gef}edB {gf}g2 G | {g}B{d}A{e}A {gAGAG}A2 :|]
[|: a | A{d}B{e}G {gAd}A2 e | {gde}dB{d}A {gBd}B2 d | {g}e2 {GdG}e {gAGAG}A2 e | {gde}dB{d}A {gGd}Gge |
[2 "2 of 4th part" {g}A{d}B{e}G {gAd}A2 e | {gde}dB{d}A {gBd}B2 d | {gef}edB {gf}g2 G | {g}B{d}A{e}A {gAGAG}A2 :|]
[|: e | {a}gag {ef}edB | {a}gag {ef}e2 f | {a}ge{A}e {g}d{e}d{G}d | {gBd}Bge {gdedG}d2 e |
[1 {a}gag {ef}edB | {a}gag {ef}e2 d | {gef}edB {gf}g2 G | {g}B{d}A{e}A {gAGAG}A2 :|]

